packages/design-system/src/icons/ps-icons/cookie.svg

<?xml version="1.0" encoding="UTF-8"?>
<!-- Created with Inkscape (http://www.inkscape.org/) -->
<svg width="800" height="800" version="1.1" viewBox="0 0 800 800" xml:space="preserve" xmlns="http://www.w3.org/2000/svg"><defs><clipPath id="clipPath758"><path d="m0 600h600v-600h-600z"/></clipPath></defs><g transform="matrix(1.3333 0 0 -1.3333 0 800)"><g transform="translate(154.92 430.59)"><path d="m0 0c13.067 14.642 27.939 27.187 44.616 37.635 21.422 13.421 45.221 22.437 71.399 27.047s53.079 3.134 80.704-4.427c6.668-1.825 13.407-4.011 20.219-6.559 6.812-2.547 13.652-5.613 20.52-9.2-6.768-13.506-9.509-27.262-8.223-41.267 1.286-14.004 5.541-26.517 12.764-37.539 7.222-11.022 16.987-19.924 29.296-26.706 12.308-6.782 26.099-9.704 41.374-8.765-13.383-16.474-17.103-34.74-11.159-54.798s19.307-33.272 40.09-39.644c-0.639-3.579-1.291-6.899-1.958-9.959s-1.479-6.336-2.435-9.829c-7.127-26.037-18.841-49.197-35.145-69.48-16.303-20.283-35.396-36.73-57.279-49.342-12.163-7.01-24.95-12.637-38.36-16.881m-32.79-7.445c-0.183-0.026-0.366-0.052-0.55-0.078-25.917-3.657-52.052-1.879-78.407 5.334-26.354 7.214-49.752 18.994-70.194 35.341-20.442 16.346-36.889 35.439-49.342 57.279-12.453 21.839-20.508 45.717-24.166 71.634s-1.879 52.053 5.334 78.408c1.96 7.159 4.324 14.162 7.092 21.008" fill="none" stroke="#4285fa" stroke-linecap="round" stroke-linejoin="round" stroke-miterlimit="10" stroke-width="25.168"/></g><g transform="translate(213.94 381.3)"><path d="m0 0c0 32.054 25.985 58.039 58.039 58.039 32.055 0 58.04-25.985 58.04-58.039s-25.985-58.039-58.04-58.039c-32.054 0-58.039 25.985-58.039 58.039z" fill="none" stroke="#dc9af8" stroke-linecap="round" stroke-linejoin="round" stroke-miterlimit="10" stroke-width="25.168"/></g><g transform="translate(175.62 237.35)"><path d="m0 0c0 23.065 18.698 41.763 41.763 41.763s41.762-18.698 41.762-41.763-18.697-41.763-41.762-41.763-41.763 18.698-41.763 41.763z" fill="none" stroke="#3bd897" stroke-linecap="round" stroke-linejoin="round" stroke-miterlimit="10" stroke-width="25.168"/></g><g transform="translate(346.96 216.46)"><path d="m0 0c0 18.611 15.087 33.698 33.698 33.698s33.698-15.087 33.698-33.698-15.087-33.698-33.698-33.698-33.698 15.087-33.698 33.698z" fill="none" stroke="#dc9af8" stroke-linecap="round" stroke-linejoin="round" stroke-miterlimit="10" stroke-width="25.168"/></g><g transform="translate(121.49 403.23)"><path d="m0 0c0.119 6.895 5.805 12.388 12.7 12.268 6.895-0.119 12.388-5.805 12.268-12.7-0.119-6.895-5.805-12.387-12.7-12.268s-12.387 5.805-12.268 12.7" fill="#4285fa"/></g></g></svg>

<?xml version="1.0" encoding="UTF-8" standalone="no"?>
<!-- Created with Inkscape (http://www.inkscape.org/) -->

<svg
   version="1.1"
   id="svg2"
   xml:space="preserve"
   width="556.58392"
   height="562.04895"
   viewBox="0 0 556.58392 562.04895"
   sodipodi:docname="Cookie.svg"
   inkscape:version="1.1.2 (0a00cf5339, 2022-02-04)"
   xmlns:inkscape="http://www.inkscape.org/namespaces/inkscape"
   xmlns:sodipodi="http://sodipodi.sourceforge.net/DTD/sodipodi-0.dtd"
   xmlns="http://www.w3.org/2000/svg"
   xmlns:svg="http://www.w3.org/2000/svg"><defs
     id="defs6"><clipPath
       clipPathUnits="userSpaceOnUse"
       id="clipPath16"><path
         d="M 0,600 H 600 V 0 H 0 Z"
         id="path14" /></clipPath></defs><sodipodi:namedview
     id="namedview4"
     pagecolor="#ffffff"
     bordercolor="#666666"
     borderopacity="1.0"
     inkscape:pageshadow="2"
     inkscape:pageopacity="0.0"
     inkscape:pagecheckerboard="0"
     showgrid="false"
     inkscape:zoom="1.09125"
     inkscape:cx="278.12142"
     inkscape:cy="280.87056"
     inkscape:window-width="2560"
     inkscape:window-height="1371"
     inkscape:window-x="0"
     inkscape:window-y="32"
     inkscape:window-maximized="1"
     inkscape:current-layer="g8" /><g
     id="g8"
     inkscape:groupmode="layer"
     inkscape:label="Cookie"
     transform="matrix(1.3333333,0,0,-1.3333333,-121.96502,680.62217)"><g
       id="g10"><g
         id="g12"
         clip-path="url(#clipPath16)"><g
           id="g18"
           transform="translate(154.9236,430.5903)"><path
             d="m 0,0 c 13.067,14.642 27.939,27.187 44.616,37.635 21.422,13.421 45.221,22.437 71.399,27.047 26.178,4.61 53.079,3.134 80.704,-4.427 6.668,-1.825 13.407,-4.011 20.219,-6.559 6.812,-2.547 13.652,-5.613 20.52,-9.2 -6.768,-13.506 -9.509,-27.262 -8.223,-41.267 1.286,-14.004 5.541,-26.517 12.764,-37.539 7.222,-11.022 16.987,-19.924 29.296,-26.706 12.308,-6.782 26.099,-9.704 41.374,-8.765 -13.383,-16.474 -17.103,-34.74 -11.159,-54.798 5.944,-20.058 19.307,-33.272 40.09,-39.644 -0.639,-3.579 -1.291,-6.899 -1.958,-9.959 -0.667,-3.06 -1.479,-6.336 -2.435,-9.829 -7.127,-26.037 -18.841,-49.197 -35.145,-69.48 -16.303,-20.283 -35.396,-36.73 -57.279,-49.342 -12.163,-7.01 -24.95,-12.637 -38.36,-16.881 m -32.79,-7.445 c -0.183,-0.026 -0.366,-0.052 -0.55,-0.078 -25.917,-3.657 -52.052,-1.879 -78.407,5.334 -26.354,7.214 -49.752,18.994 -70.194,35.341 -20.442,16.346 -36.889,35.439 -49.342,57.279 -12.453,21.839 -20.508,45.717 -24.166,71.634 -3.658,25.917 -1.879,52.053 5.334,78.408 1.96,7.159 4.324,14.162 7.092,21.008"
             style="fill:none;stroke:#4285fa;stroke-width:25.168;stroke-linecap:round;stroke-linejoin:round;stroke-miterlimit:10;stroke-dasharray:none;stroke-opacity:1"
             id="path20" /></g><g
           id="g22"
           transform="translate(213.9443,381.2997)"><path
             d="m 0,0 c 0,32.054 25.985,58.039 58.039,58.039 32.055,0 58.04,-25.985 58.04,-58.039 0,-32.054 -25.985,-58.039 -58.04,-58.039 C 25.985,-58.039 0,-32.054 0,0 Z"
             style="fill:none;stroke:#dc9af8;stroke-width:25.168;stroke-linecap:round;stroke-linejoin:round;stroke-miterlimit:10;stroke-dasharray:none;stroke-opacity:1"
             id="path24" /></g><g
           id="g26"
           transform="translate(175.6219,237.3474)"><path
             d="M 0,0 C 0,23.065 18.698,41.763 41.763,41.763 64.828,41.763 83.525,23.065 83.525,0 83.525,-23.065 64.828,-41.763 41.763,-41.763 18.698,-41.763 0,-23.065 0,0 Z"
             style="fill:none;stroke:#3bd897;stroke-width:25.168;stroke-linecap:round;stroke-linejoin:round;stroke-miterlimit:10;stroke-dasharray:none;stroke-opacity:1"
             id="path28" /></g><g
           id="g30"
           transform="translate(346.9599,216.4558)"><path
             d="M 0,0 C 0,18.611 15.087,33.698 33.698,33.698 52.309,33.698 67.396,18.611 67.396,0 67.396,-18.611 52.309,-33.698 33.698,-33.698 15.087,-33.698 0,-18.611 0,0 Z"
             style="fill:none;stroke:#dc9af8;stroke-width:25.168;stroke-linecap:round;stroke-linejoin:round;stroke-miterlimit:10;stroke-dasharray:none;stroke-opacity:1"
             id="path32" /></g><g
           id="g34"
           transform="translate(121.4941,403.2316)"><path
             d="M 0,0 C 0.119,6.895 5.805,12.388 12.7,12.268 19.595,12.149 25.088,6.463 24.968,-0.432 24.849,-7.327 19.163,-12.819 12.268,-12.7 5.373,-12.581 -0.119,-6.895 0,0"
             style="fill:#4285fa;fill-opacity:1;fill-rule:nonzero;stroke:none"
             id="path36" /></g></g></g></g></svg>
